icons/ui_secure_fill.svg

<svg width="48" height="48" viewBox="0 0 48 48" fill="none" xmlns="http://www.w3.org/2000/svg">
<path fill-rule="evenodd" clip-rule="evenodd" d="M9 20C9 18.8954 9.89543 18 11 18H14V16C14 10.4772 18.4772 6 24 6C29.5228 6 34 10.4772 34 16V18H37C38.1046 18 39 18.8954 39 20V40C39 41.1046 38.1046 42 37 42H11C9.89543 42 9 41.1046 9 40V20ZM24 10C27.3137 10 30 12.6863 30 16V18H18V16C18 12.6863 20.6863 10 24 10ZM32.9999 26H15V24H32.9999V26ZM15 31H32.9999V29H15V31ZM32.9999 36H15V34H32.9999V36Z" fill="black"/>
</svg>

<svg
  xmlns="http://www.w3.org/2000/svg"
  width="24"
  height="24"
  viewBox="0 0 24 24"
  fill="none"
  stroke="currentColor"
  stroke-width="2"
  stroke-linecap="round"
  stroke-linejoin="round"
>
  <path
    fill-rule="evenodd"
    d="M9 20a2 2 0 0 1 2-2h3v-2c0-5.523 4.477-10 10-10s10 4.477 10 10v2h3a2 2 0 0 1 2 2v20a2 2 0 0 1-2 2H11a2 2 0 0 1-2-2zm15-10a6 6 0 0 1 6 6v2H18v-2a6 6 0 0 1 6-6m9 16H15v-2h18zm-18 5h18v-2H15zm18 5H15v-2h18z"
    clip-rule="evenodd"
  />
</svg>
